icons/thumb-up-fill.svg

<svg viewBox="0 0 24 24" fill="currentColor" xmlns="http://www.w3.org/2000/svg">
    <path d="M2 8.99997H5V21H2C1.44772 21 1 20.5523 1 20V9.99997C1 9.44769 1.44772 8.99997 2 8.99997ZM7.29289 7.70708L13.6934 1.30661C13.8693 1.13066 14.1479 1.11087 14.3469 1.26016L15.1995 1.8996C15.6842 2.26312 15.9026 2.88253 15.7531 3.46966L14.5998 7.99997H21C22.1046 7.99997 23 8.8954 23 9.99997V12.1043C23 12.3656 22.9488 12.6243 22.8494 12.8658L19.755 20.3807C19.6007 20.7554 19.2355 21 18.8303 21H8C7.44772 21 7 20.5523 7 20V8.41419C7 8.14897 7.10536 7.89462 7.29289 7.70708Z"/>
</svg>

<svg xmlns="http://www.w3.org/2000/svg" viewBox="0 0 24 24">
    <g>
        <path fill="none" d="M0 0h24v24H0z"/>
        <path d="M2 9h3v12H2a1 1 0 0 1-1-1V10a1 1 0 0 1 1-1zm5.293-1.293l6.4-6.4a.5.5 0 0 1 .654-.047l.853.64a1.5 1.5 0 0 1 .553 1.57L14.6 8H21a2 2 0 0 1 2 2v2.104a2 2 0 0 1-.15.762l-3.095 7.515a1 1 0 0 1-.925.619H8a1 1 0 0 1-1-1V8.414a1 1 0 0 1 .293-.707z"/>
    </g>
</svg>
